src/assets/images/Group 55016.svg

<svg width="1507" height="1393" fill="none" xmlns="http://www.w3.org/2000/svg"><g filter="url(#a)"><ellipse cx="957.494" cy="877.401" rx="400.463" ry="207.126" transform="rotate(-6.481 957.494 877.401)" fill="#8349FF" fill-opacity=".4"/></g><g filter="url(#b)"><path d="M869.611 749.631c44.659-74.943 32.313-108.576 40.394-173.956 15.599-126.205-62.404-164.292-33.964-294.791C934.07 14.609 1500.57 472.519 1177.75 772.65c-202.941 188.673-889.65 557.78-722.995 366.99 66.556-76.2 148.447-113.29 229.012-188.704 83.145-77.829 140.271-124.826 185.844-201.305z" fill="url(#c)" fill-opacity=".4"/></g><g filter="url(#d)"><path d="M511.138 783.351c-86.432 5.686-142.843 37.591-197.712 111.82-111.155 150.379 538.279 198.149 447.834 32.941-57.027-104.164-139.721-152.024-250.122-144.761z" fill="#0013FF" fill-opacity=".4"/></g><g filter="url(#e)"><path d="M514.781 825.047c-71.867 4.728-118.771 31.256-164.393 92.976-92.423 125.037 447.566 164.757 372.363 27.39-47.417-86.611-116.175-126.405-207.97-120.366z" fill="#0FF" fill-opacity=".4"/></g><defs><filter id="a" x="408.892" y="516.647" width="1097.2" height="721.506" filterUnits="userSpaceOnUse" color-interpolation-filters="sRGB"><feFlood flood-opacity="0" result="BackgroundImageFix"/><feBlend in="SourceGraphic" in2="BackgroundImageFix" result="shape"/><feGaussianBlur stdDeviation="75" result="effect1_foregroundBlur_394_276"/></filter><filter id="b" x="228.931" y=".771" width="1247.64" height="1392.1" filterUnits="userSpaceOnUse" color-interpolation-filters="sRGB"><feFlood flood-opacity="0" result="BackgroundImageFix"/><feBlend in="SourceGraphic" in2="BackgroundImageFix" result="shape"/><feGaussianBlur stdDeviation="100" result="effect1_foregroundBlur_394_276"/></filter><filter id="d" x=".583" y="482.634" width="1069.35" height="849.258" filterUnits="userSpaceOnUse" color-interpolation-filters="sRGB"><feFlood flood-opacity="0" result="BackgroundImageFix"/><feBlend in="SourceGraphic" in2="BackgroundImageFix" result="shape"/><feGaussianBlur stdDeviation="150" result="effect1_foregroundBlur_394_276"/></filter><filter id="e" x="189.709" y="674.451" width="690.252" height="507.252" filterUnits="userSpaceOnUse" color-interpolation-filters="sRGB"><feFlood flood-opacity="0" result="BackgroundImageFix"/><feBlend in="SourceGraphic" in2="BackgroundImageFix" result="shape"/><feGaussianBlur stdDeviation="75" result="effect1_foregroundBlur_394_276"/></filter><linearGradient id="c" x1="899.068" y1="486.216" x2="1019.04" y2="851.961" gradientUnits="userSpaceOnUse"><stop stop-color="#FF0095"/><stop offset="1" stop-color="#FFCDFF"/></linearGradient></defs></svg>

<svg width="1507" height="1393" viewBox="0 0 1507 1393" fill="none" xmlns="http://www.w3.org/2000/svg">
<g filter="url(#filter0_f_394_276)">
<ellipse cx="957.494" cy="877.401" rx="400.463" ry="207.126" transform="rotate(-6.48121 957.494 877.401)" fill="#8349FF" fill-opacity="0.4"/>
</g>
<g filter="url(#filter1_f_394_276)">
<path d="M869.611 749.631C914.27 674.688 901.924 641.055 910.005 575.675C925.604 449.47 847.601 411.383 876.041 280.884C934.07 14.6093 1500.57 472.519 1177.75 772.65C974.809 961.323 288.1 1330.43 454.755 1139.64C521.311 1063.44 603.202 1026.35 683.767 950.936C766.912 873.107 824.038 826.11 869.611 749.631Z" fill="url(#paint0_linear_394_276)" fill-opacity="0.4"/>
</g>
<g filter="url(#filter2_f_394_276)">
<path d="M511.138 783.351C424.706 789.037 368.295 820.942 313.426 895.171C202.271 1045.55 851.705 1093.32 761.26 928.112C704.233 823.948 621.539 776.088 511.138 783.351Z" fill="#0013FF" fill-opacity="0.4"/>
</g>
<g filter="url(#filter3_f_394_276)">
<path d="M514.781 825.047C442.914 829.775 396.01 856.303 350.388 918.023C257.965 1043.06 797.954 1082.78 722.751 945.413C675.334 858.802 606.576 819.008 514.781 825.047Z" fill="#00FFFF" fill-opacity="0.4"/>
</g>
<defs>
<filter id="filter0_f_394_276" x="408.892" y="516.647" width="1097.2" height="721.506" filterUnits="userSpaceOnUse" color-interpolation-filters="sRGB">
<feFlood flood-opacity="0" result="BackgroundImageFix"/>
<feBlend mode="normal" in="SourceGraphic" in2="BackgroundImageFix" result="shape"/>
<feGaussianBlur stdDeviation="75" result="effect1_foregroundBlur_394_276"/>
</filter>
<filter id="filter1_f_394_276" x="228.931" y="0.77124" width="1247.64" height="1392.1" filterUnits="userSpaceOnUse" color-interpolation-filters="sRGB">
<feFlood flood-opacity="0" result="BackgroundImageFix"/>
<feBlend mode="normal" in="SourceGraphic" in2="BackgroundImageFix" result="shape"/>
<feGaussianBlur stdDeviation="100" result="effect1_foregroundBlur_394_276"/>
</filter>
<filter id="filter2_f_394_276" x="0.583008" y="482.634" width="1069.35" height="849.258" filterUnits="userSpaceOnUse" color-interpolation-filters="sRGB">
<feFlood flood-opacity="0" result="BackgroundImageFix"/>
<feBlend mode="normal" in="SourceGraphic" in2="BackgroundImageFix" result="shape"/>
<feGaussianBlur stdDeviation="150" result="effect1_foregroundBlur_394_276"/>
</filter>
<filter id="filter3_f_394_276" x="189.709" y="674.451" width="690.252" height="507.252" filterUnits="userSpaceOnUse" color-interpolation-filters="sRGB">
<feFlood flood-opacity="0" result="BackgroundImageFix"/>
<feBlend mode="normal" in="SourceGraphic" in2="BackgroundImageFix" result="shape"/>
<feGaussianBlur stdDeviation="75" result="effect1_foregroundBlur_394_276"/>
</filter>
<linearGradient id="paint0_linear_394_276" x1="899.068" y1="486.216" x2="1019.04" y2="851.961" gradientUnits="userSpaceOnUse">
<stop stop-color="#FF0095"/>
<stop offset="1" stop-color="#FFCDFF"/>
</linearGradient>
</defs>
</svg>
